src/images/doors/doors-icon.svg

<svg fill="none" height="46" viewBox="0 0 47 46" width="47" xmlns="http://www.w3.org/2000/svg" xmlns:xlink="http://www.w3.org/1999/xlink"><clipPath id="a"><path d="m.5 23c0-12.7025 10.2975-23 23-23s23 10.2975 23 23-10.2975 23-23 23h-22.38666c-.338739 0-.61334-.2746-.61334-.6133z"/></clipPath><g clip-path="url(#a)"><path d="m.5 23c0-12.7025 10.2975-23 23-23s23 10.2975 23 23-10.2975 23-23 23h-22.38666c-.338739 0-.61334-.2746-.61334-.6133z" fill="#ffd874"/><path d="m7.49943 7c7.48207 0 13.54817 6.0654 13.54817 13.547v19.453h-27.09525v-19.453c.00007-7.4816 6.0660712-13.547 13.54708-13.547zm6.07937 22.2312c1.4393 0 2.6048-1.1662 2.6048-2.6048 0-1.4393-1.1655-2.6054-2.6048-2.6054s-2.6048 1.1661-2.6048 2.6054c0 1.4386 1.1655 2.6048 2.6048 2.6048z" fill="#080a08"/></g></svg>

<svg width="47" height="46" viewBox="0 0 47 46" fill="none" xmlns="http://www.w3.org/2000/svg">
<g clip-path="url(#clip0_24_1415)">
<path d="M0.5 23C0.5 10.2975 10.7975 0 23.5 0C36.2025 0 46.5 10.2975 46.5 23C46.5 35.7025 36.2025 46 23.5 46H1.11334C0.774601 46 0.5 45.7254 0.5 45.3867V23Z" fill="#FFD874"/>
<path d="M7.49943 7C14.9815 7 21.0476 13.0654 21.0476 20.547V40H-6.04765V20.547C-6.04758 13.0654 0.0184212 7 7.49943 7ZM13.5788 29.2312C15.0181 29.2312 16.1836 28.065 16.1836 26.6264C16.1836 25.1871 15.0181 24.021 13.5788 24.021C12.1395 24.021 10.974 25.1871 10.974 26.6264C10.974 28.065 12.1395 29.2312 13.5788 29.2312Z" fill="#080A08"/>
</g>
<defs>
<clipPath id="clip0_24_1415">
<path d="M0.5 23C0.5 10.2975 10.7975 0 23.5 0C36.2025 0 46.5 10.2975 46.5 23C46.5 35.7025 36.2025 46 23.5 46H1.11334C0.774601 46 0.5 45.7254 0.5 45.3867V23Z" fill="white"/>
</clipPath>
</defs>
</svg>
